**kern	**kern
*staff1	*staff1
*head[head1a]	*head[head1a]
*head[head1b]	*head[head1b]
*head[head1aa]	*head[head1aa]
*solo1[solo1a]	*solo1[solo1a]
*solo1[solo1b]	*solo1[solo1b]
*solo1[solo1aa]	*solo1[solo1aa]
=1-	=1-
*clefG2	*clefG2
*k[]	*k[]
*B-:	*B-:
*M4/4	*M4/4
8r	1B-:maj
*>head1a	*>head1a
{8B-/	.
4d/	.
4f/	.
8c/L	.
8G/J	.
=2	=2
8e-/L	2C:min
8g/	.
8b-/	.
[8bn/J	.
4.b\]	2F:dom
8a/	.
=3	=3
8b-\	2B-:dom
4f/	.
[8a-/	.
8a-/]	2G:dom
4g/	.
8g-/	.
=4	=4
8f/L	2C:min
8e/	.
8e-/	.
[8d/J	.
8d/L]	2F:dom
8c/J}	.
4r	.
=5	=5
8r	1B-:maj
{8B-/	.
4d/	.
4f/	.
8c/L	.
8G/J	.
=6	=6
8e-/L	2C:min
8g/	.
8b-/	.
[8bn/J	.
4.b\]	2F:dom
8a/	.
=7	=7
8b-\	2B-:dom
4f/	.
[8a-/	.
8a-/]	2G:dom
4g/	.
8g-/	.
=8	=8
8f/L	4C:min
8e-/	.
8d/	4F:dom
8B-/J}	.
2r	2B-:dom
=9	=9
2r	1D:dom
8r	.
*>head1b	*>head1b
{8a-/	.
24g-/LL	.
24a-/	.
24g-/JJ	.
8f/	.
=10:|!	=10:|!
8e/L	1D:dom
8A/	.
8c/	.
8e/J	.
8b-/L	.
8g-/	.
8e-/	.
8c/J	.
=11	=11
8a/L	1G:dom
8d/	.
8e/	.
[8f/J	.
4f/]}	.
4r	.
=12	=12
1r	1G:dom
=13	=13
{12ee\L	1C:dom
12ff\	.
12ff#\J	.
12gg\L	.
12ff#\	.
12ffn\J	.
8ee\L	.
8cc\	.
8cc#\	.
8dd\J	.
=14	=14
24b-\LL	1C:dom
24cc\	.
24b-\JJ	.
8a/L	.
8g/	.
8f/J	.
8e/L	.
8g/	.
8b-/	.
8dd/J	.
=15	=15
4cc\	1F:dom
8r	.
8b-\	.
12g/L	.
12b-/	.
12g/J}	.
4r	.
=16	=16
8r	1F:dom
{16c/LL	.
16d/J	.
8e-/	.
8f/J	.
8g-/L	.
16a-/L	.
16g-/J	.
8f/	.
8e-/J	.
=17	=17
8d/L	1B-:maj
8B-/J	.
4d/	.
4f/	.
8c/L	.
8G/J	.
=18||	=18||
8e-/L	2C:min
8g/	.
8b-/	.
[8bn/J	.
4.b\]	2F:dom
8a/	.
=19	=19
8b-\	2B-:dom
4f/	.
[8a-/	.
8a-/]	2G:dom
4g/	.
8g-/	.
=20	=20
8f/L	2C:min
8e/	.
8e-/	.
[8d/J	.
8d/L]	2F:dom
8c/J}	.
4r	.
=21	=21
8r	1B-:maj
*>head1aa	*>head1aa
{8B-/	.
4d/	.
4f/	.
8c/L	.
8G/J	.
=22	=22
8e-/L	2C:min
8g/	.
8b-/	.
[8bn/J	.
4.b\]	2F:dom
8a/	.
=23	=23
8b-\	2B-:dom
4f/	.
[8a-/	.
8a-/]	2G:dom
4g/	.
8g-/	.
=24	=24
8f/L	4C:min
8e-/	.
8d/	4F:dom
8B-/J}	.
2r	2B-:dom
=25	=25
8r	1B-:dom
*>solo1a	*>solo1a
{16c/LL	.
16B-/J	.
8A/	.
8B-/J	.
8c/L	.
8B-/	.
8A/	.
8B-/J	.
=26||	=26||
8d/L	2C:min
8e-/	.
8d/	.
8B-/J	.
8c/L	2F:dom
8A/J	.
12B-/L	.
12d/	.
12f/J	.
=27	=27
16a/LL	1B-:dom
16b-/J	.
[8f/J	.
2f/]}	.
4r	2G:dom
=28	=28
4r	2C:min
{16a/LL	.
16g/	.
16f#/	.
16g/JJ	.
16b-/LL	2F:dom
16g/	.
16e-/	.
16d/JJ	.
16c/LL	.
16B-/	.
16A/	.
16B-/JJ	.
=29	=29
16e-/LL	2F:min
16g/	.
16e-/	.
16c/JJ	.
4f/	.
8r	2B-:dom
16a-/LL	.
16g/JJ	.
16f/LL	.
16e-/	.
16d/	.
16c/JJ	.
=30	=30
16B-/LL	1E-:dom
16A/	.
16A-/	.
16c/JJ	.
4G/}	.
8r	.
{16dd\LL	.
16cc\JJ	.
16b-/LL	.
16g-/	.
16e-/	.
16c/JJ	.
=31	=31
4d/	2D:min
8r	.
16A/LL	.
16B-/JJ	.
16c/LL	2G;dom
16B-/	.
16A/	.
16B-/JJ	.
16d/LL	.
16f/	.
16g/	.
16a/JJ	.
=32	=32
16cc\LL	2C:min
16a\	.
16b-\	.
16cc\JJ	.
16dd\LL	.
16ff\JJ}	.
8r	.
2r	2F:dom
=33	=33
8r	1B-:dom
{8f#/	.
12g\L	.
12b-\	.
12dd\J	.
8ff\L	.
8ee-\	.
8dd\	.
8cc\J	.
=34||	=34||
8b-\L	2C:min
16cc\L	.
16b-\J	.
8a\	.
8b-\J	.
8cc/L	2F:dom
8b-/	.
8g/	.
[8f/J	.
=35	=35
4f/]	2D:min
8r	.
8d/	.
24a/LL	2G:dom
24b-/	.
24a/JJ	.
8f/L	.
8d/	.
8A/J	.
=36	=36
8A-/L	2C:min
8e/	.
8e-/	.
8G/J	.
8B-/L	.
8d/	.
8c/	.
8B-/J	2F:dom
=37	=37
12c/L	2F:min
12e-/	.
12g-/J	.
8f/L	.
8e-/J	.
8d/L	2B-:dom
8c/	.
8B-/	.
8A-/J	.
=38	=38
4G/}	1E-:dom
4r	.
2r	.
=39	=39
{8g-\L	1B-:dom
8b-\	.
8cc\	.
[8b-\J	.
4b-\]	.
8f/L	.
8b-/J	.
=40	=40
8cc\L	1B-:dom
[8b-\J	.
4b-\]}	.
2r	.
=41	=41
4r	1D:dom
8r	.
{8d/	.
12f#/L	.
12a/	.
12dd/J	.
8ee-\L	.
8cc\J	.
=42||	=42||
4r	1D:dom
8b-\L	.
16cc\L	.
16b-\JJ	.
8a-/L	.
8g-/	.
8e-/	.
8d/J	.
=43	=43
8a/L	1G:dom
8d/	.
8e/	.
[8f/J	.
4f/]}	.
4r	.
=44	=44
8r	1G:dom
{8B-/	.
12Bn/L	.
12d/	.
12f/J	.
16b-/LL	.
16a-/JJ}	.
8r	.
4r	.
=45	=45
4r	1C:dom
8r	.
{8d/	.
16f#/LL	.
16g/	.
16b-/	.
16dd/JJ	.
16ff\LL	.
16dd\	.
16ee-\	.
16een\JJ	.
=46	=46
16cc\LL	1C:dom
16cc#\	.
16dd\	.
16ccn\JJ	.
16b-/LL	.
16a/	.
16g/	.
16f/JJ	.
16e/LL	.
16g/	.
16b-/	.
16dd/JJ	.
4a/	.
=47	=47
8r	1F:dom
16cc\LL	.
16b\JJ	.
4b-\	.
8r	.
8a/	.
24g/LL	.
24a/	.
24g/JJ	.
8f/	.
=48	=48
8e-/L	1F:dom
8G/	.
8B-/	.
8d/J	.
8c/L	.
8B-/J	.
16A/LL	.
16c/	.
16e-/	.
16g-/JJ	.
=49	=49
4f/}	1B-:dom
8r	.
*solo1aa	*>solo1aa
{8B-/	.
4.c/	.
8B-/	.
=50||	=50||
8d/L	2C:min
8c/J	.
2e-/	.
8r	.
8g/	2F:dom
=51	=51
8f/L	2B-:dom
8d/J	.
24B-/LL	.
24c/	.
24B-/JJ	.
8G/	.
4c/}	2G:dom
4r	.
=52	=52
2r	2C:min
2r	2F:dom
=53	=53
8r	2F:min
{8f/	.
12a-\L	.
12cc\	.
12ee-\J	.
8gg\L	2B-:dom
8gg-\	.
8ff\	.
8een\J	.
=54	=54
8ee-\L	1E-:dom
8b-\	.
8cc\	.
[8dd-\J	.
4.dd-\]	.
8ddn\	.
=55	=55
8ee-\L	1B-:dom
8dd\J	.
24b-\LL	.
24cc\	.
24b-\JJ	.
8f/	.
12a\L	.
12b-\	.
12bn\J	.
8cc/L	.
8a/J	.
=56	=56
8b-\L	2C:min
16cc\L	.
16b-\J	.
8a\	.
8g\J	.
8f/L	2F:dom
8e-/J	.
24d/LL	.
24e-/	.
24d/JJ	.
8c/	.
=57	=57
8B-/L	1B-:dom
8c/J	.
4G/}	.
2r	.
=58||	=58||
1r	.
=59	=59
1r	.
=60	=60
1r	.
=61	=61
1r	.
=62	=62
1r	.
=63	=63
1r	.
=64	=64
1r	.
=65	=65
1r	.
=66	=66
1r	.
=67	=67
1r	.
=68	=68
1r	.
=69	=69
1r	.
=70	=70
1r	.
=71	=71
1r	.
=72	=72
1r	.
=73	=73
1r	.
=74	=74
1r	.
=75	=75
1r	.
=76	=76
1r	.
=77	=77
1r	.
=78	=78
1r	.
=79	=79
1r	.
=80	=80
1r	.
=81	=81
1r	.
=82	=82
1r	.
=83	=83
1r	.
=84	=84
1r	.
=85	=85
1r	.
=86	=86
1r	.
=87	=87
1r	.
=88	=88
1r	.
==	==
*-	*-
